modules/feathericon/icons/beer.svg

<?xml version="1.0" encoding="UTF-8"?>
<svg width="11px" height="14px" viewBox="0 0 11 14" version="1.1" xmlns="http://www.w3.org/2000/svg" xmlns:xlink="http://www.w3.org/1999/xlink">
    <!-- Generator: sketchtool 48.1 (47250) - http://www.bohemiancoding.com/sketch -->
    <title>beer</title>
    <desc>Created with sketchtool.</desc>
    <defs></defs>
    <g id="food" stroke="none" stroke-width="1" fill="none" fill-rule="evenodd">
        <g id="beer" fill="#000000">
            <path d="M9,11 L9,12 L10,12 L10,14 L0,14 L0,12 L1,12 L1,5 L0,5 L0,4 L0.378887259,4 C0.139567915,3.64247549 0,3.21253666 0,2.75 C0,1.50735931 1.00735931,0.5 2.25,0.5 C2.38297499,0.5 2.51325573,0.511535414 2.63989614,0.533660147 C2.99677091,0.202486663 3.47473881,0 4,0 C4.36428714,0 4.70582663,0.097394286 5,0.267564391 C5.29417337,0.097394286 5.63571286,0 6,0 C6.52526119,0 7.00322909,0.202486663 7.36010386,0.533660147 C7.48674427,0.511535414 7.61702501,0.5 7.75,0.5 C8.99264069,0.5 10,1.50735931 10,2.75 C10,3.21253666 9.86043209,3.64247549 9.62111274,4 L10,4 L10,5 L9,5 L9,6 L10.0010434,6 C10.5527519,6 11,6.44371665 11,6.99980749 L11,10.0001925 C11,10.5523709 10.5573397,11 10.0010434,11 L9,11 Z M6.5,6 L6.5,11 L7.5,11 L7.5,6 L6.5,6 Z M4.5,6 L4.5,11 L5.5,11 L5.5,6 L4.5,6 Z M2.5,6 L2.5,11 L3.5,11 L3.5,6 L2.5,6 Z M7.15291085,1.54035937 C6.87775959,1.21015393 6.46342184,1 6,1 C5.61582278,1 5.26537825,1.14442678 5,1.38194675 C4.73462175,1.14442678 4.38417722,1 4,1 C3.53657816,1 3.12224041,1.21015393 2.84708915,1.54035937 C2.73568438,1.51396776 2.61947336,1.5 2.5,1.5 C1.67157288,1.5 1,2.17157288 1,3 C1,3.82842712 1.67157288,4.5 2.5,4.5 C2.96342184,4.5 3.37775959,4.28984607 3.65291085,3.95964063 C3.76431562,3.98603224 3.88052664,4 4,4 C4.38417722,4 4.73462175,3.85557322 5,3.61805325 C5.26537825,3.85557322 5.61582278,4 6,4 C6.11947336,4 6.23568438,3.98603224 6.34708915,3.95964063 C6.62224041,4.28984607 7.03657816,4.5 7.5,4.5 C8.32842712,4.5 9,3.82842712 9,3 C9,2.17157288 8.32842712,1.5 7.5,1.5 C7.38052664,1.5 7.26431562,1.51396776 7.15291085,1.54035937 Z" id="Shape"></path>
        </g>
    </g>
</svg>

<svg width="11" height="14" xmlns="http://www.w3.org/2000/svg"><path d="M9 11v1h1v2H0v-2h1V5H0V4h.379A2.25 2.25 0 0 1 2.64.534 1.993 1.993 0 0 1 4 0c.364 0 .706.097 1 .268A1.99 1.99 0 0 1 6 0c.525 0 1.003.202 1.36.534A2.25 2.25 0 0 1 9.621 4H10v1H9v1h1.001c.552 0 .999.444.999 1v3c0 .552-.443 1-.999 1H9zM6.5 6v5h1V6h-1zm-2 0v5h1V6h-1zm-2 0v5h1V6h-1zm4.653-4.46A1.497 1.497 0 0 0 5 1.382a1.497 1.497 0 0 0-2.153.158 1.5 1.5 0 1 0 .806 2.42A1.504 1.504 0 0 0 5 3.618a1.494 1.494 0 0 0 1.347.342 1.5 1.5 0 1 0 .806-2.42z" fill="#000" fill-rule="evenodd"/></svg>
